svg/theodinproject.svg

<svg width="44" height="60" viewBox="0 0 44 60" fill="none" xmlns="http://www.w3.org/2000/svg">
<path fill-rule="evenodd" clip-rule="evenodd" d="M8.68927 35.4922L13.148 20.0493H30.9831L35.4419 35.4922H8.68927Z" fill="#EED9C3"/>
<ellipse cx="27.7848" cy="27.8815" rx="1.26005" ry="1.24284" fill="#353535"/>
<path fill-rule="evenodd" clip-rule="evenodd" d="M19.446 26.4685C19.446 26.0344 19.0892 25.6826 18.6493 25.6826C17.6381 25.6826 15.9035 25.6826 14.8922 25.6826C14.4524 25.6826 14.0955 26.0344 14.0955 26.4685C14.0955 27.1449 14.0955 28.1309 14.0955 28.9019C14.0955 29.5527 14.6306 30.0805 15.2903 30.0805C15.6996 30.0805 16.1763 30.0805 16.6579 30.0805C17.3973 30.0805 18.1063 29.7907 18.6295 29.2748C19.1523 28.7594 19.446 28.0597 19.446 27.3305C19.446 27.0178 19.446 26.7214 19.446 26.4685Z" fill="#A78347"/>
<path fill-rule="evenodd" clip-rule="evenodd" d="M35.0003 5.29008L43.8516 0.759277L39.0002 18.7593L35.0002 22.7593L35.0003 5.29008Z" fill="#E3B261"/>
<path fill-rule="evenodd" clip-rule="evenodd" d="M8.85146 5.29008L0.000193596 0.759277L4.85162 18.7593L8.85162 22.7593L8.85146 5.29008Z" fill="#E3B261"/>
<path fill-rule="evenodd" clip-rule="evenodd" d="M35.4419 13.5028C35.4419 13.5028 28.7537 9.10498 22.0656 9.10498C15.3774 9.10498 8.68927 13.5028 8.68927 13.5028V26.6964L10.4728 30.2147C11.7525 25.352 17.5443 23.3263 21.5759 26.3314L22.0656 26.6964L22.5553 26.3314C26.5868 23.3263 32.3786 25.352 33.6583 30.2147L35.4419 26.6964V13.5028Z" fill="#E3B261"/>
<path fill-rule="evenodd" clip-rule="evenodd" d="M17.6068 33.2935L14.0398 53.9634L9.12134 50.4451L13.148 35.4924L17.6068 33.2935Z" fill="#D4D4D4"/>
<path fill-rule="evenodd" clip-rule="evenodd" d="M26.5244 33.2935L30.0914 53.9634L35.0098 50.4451L30.9831 35.4924L26.5244 33.2935Z" fill="#D5D5D5"/>
<path fill-rule="evenodd" clip-rule="evenodd" d="M8.68927 26.6968L5.12225 39.8904L9.58102 48.6861L13.148 35.4925L8.68927 26.6968Z" fill="#E6E6E6"/>
<path fill-rule="evenodd" clip-rule="evenodd" d="M35.4418 26.6968L39.0089 39.8904L34.5501 48.6861L30.9831 35.4925L35.4418 26.6968Z" fill="#E6E6E6"/>
<path fill-rule="evenodd" clip-rule="evenodd" d="M17.6068 33.2937L13.5939 54.8432L22.0655 59.2411L30.5372 54.8432L26.5243 33.2937L22.3981 31.2588L22.0655 31.0947L17.6068 33.2937Z" fill="#E6E6E6"/>
<path fill-rule="evenodd" clip-rule="evenodd" d="M23.6636 34.1729H20.5425C20.5425 34.1729 20.5425 34.694 20.5425 35.2732C20.5425 35.6813 20.707 36.0723 20.9995 36.3608C21.292 36.6493 21.6884 36.8116 22.1022 36.8116C22.1026 36.8116 22.1035 36.8116 22.1039 36.8116C22.5177 36.8116 22.9141 36.6493 23.2066 36.3608C23.4991 36.0723 23.6636 35.6813 23.6636 35.2732C23.6636 34.694 23.6636 34.1729 23.6636 34.1729Z" fill="#353535"/>
</svg>

<svg xmlns="http://www.w3.org/2000/svg" width="44" height="60" fill="none" viewBox="0 0 44 60"><path fill="#EED9C3" fill-rule="evenodd" d="m8.69 35.492 4.458-15.443h17.835l4.459 15.443z" clip-rule="evenodd"/><ellipse cx="27.785" cy="27.881" fill="#353535" rx="1.26" ry="1.243"/><path fill="#A78347" fill-rule="evenodd" d="M19.446 26.469a.791.791 0 0 0-.797-.786h-3.757a.791.791 0 0 0-.796.785v2.434c0 .65.535 1.178 1.194 1.178h1.368c.74 0 1.448-.29 1.971-.805a2.73 2.73 0 0 0 .817-1.944z" clip-rule="evenodd"/><path fill="#E3B261" fill-rule="evenodd" d="M35 5.29 43.852.76 39 18.76l-4 4zm-26.149 0L.001.76l4.85 18 4 4z" clip-rule="evenodd"/><path fill="#E3B261" fill-rule="evenodd" d="M35.442 13.503s-6.688-4.398-13.376-4.398c-6.689 0-13.377 4.398-13.377 4.398v13.193l1.784 3.519c1.28-4.863 7.071-6.889 11.103-3.884l.49.365.49-.365c4.03-3.005 9.823-.979 11.102 3.884l1.784-3.519z" clip-rule="evenodd"/><path fill="#D4D4D4" fill-rule="evenodd" d="m17.607 33.294-3.567 20.67-4.919-3.519 4.027-14.953z" clip-rule="evenodd"/><path fill="#D5D5D5" fill-rule="evenodd" d="m26.524 33.294 3.567 20.67 4.919-3.519-4.027-14.953z" clip-rule="evenodd"/><path fill="#E6E6E6" fill-rule="evenodd" d="M8.69 26.697 5.121 39.89l4.459 8.796 3.567-13.193zm26.752 0 3.567 13.193-4.459 8.796-3.567-13.193zm-17.835 6.597-4.013 21.55 8.472 4.397 8.471-4.398-4.013-21.55-4.126-2.034-.332-.164z" clip-rule="evenodd"/><path fill="#353535" fill-rule="evenodd" d="M23.664 34.173h-3.122v1.1c0 .408.165.8.457 1.088.293.288.69.45 1.103.45h.002c.414 0 .81-.162 1.103-.45.292-.289.457-.68.457-1.088z" clip-rule="evenodd"/></svg>
